!!!COM: Haydn, Franz Joseph
!!!OTL: String Quartet in D Major
!!!OPS: Opus 64
!!!ONM: No. 5
!!!OMD: Menuetto: Allegretto
!!!OMV: 3
!!!SCT: H III:63
!!!SCA: Thematisch-bibliographisches Werkevererzeichnis (A. van Hoboken)
!!!YOR: Dover Edition; reprint of Eulenburg Edition
!!!ENC: Frances Bennion
!!!CDT: 1732/3/31/-1809/5/31/
!!!CNT: Oesterreich
!!!YEC: Copyright (c) 1994, 2000 Center for Computer Assisted Research in the Humanities
!!!YEM: Rights to all derivative editions reserved.
!!!YEM: Refer to licensing agreement for further details.
!!!YEN: United States of America
**kern	**kern	**kern	**kern
*k[f#c#]	*k[f#c#]	*k[f#c#]	*k[f#c#]
*D:	*D:	*D:	*D:
*clefF4	*clefC3	*clefF	*clefF
*M3/4	*M3/4	*M3/4	*M3/4
2r	2r	2r	2r
4r	4r	4r	4d
=1	=1	=1	=1
4D	4F#	4A	4f#
2r	2r	2r	4a
.	.	.	4B
=2	=2	=2	=2
4D	4G	4B	4e
2r	2r	2r	4g
.	.	.	8c#
.	.	.	8d
=3	=3	=3	=3
4D	4G	8c#	8e
.	.	8d	8f#
4D	4G	8e	8g
.	.	8f#	8a
4D	4G	8g	8b
.	.	8e	8cc#
=4	=4	=4	=4
4D	4F#	4f#	4dd
2r	4r	4r	4dd
.	8e	8g	8cc#
.	8d	8f#	8dd
=5	=5	=5	=5
2.AA	8c#	8e	8ee
.	8B	8d	8ff#
.	8A	8c#	8gg
.	8G	8B	8aa
.	8F#	8A	8bb
.	8E	8g	8ccc#
=6	=6	=6	=6
4DD	4D	4f#	4ddd
4DD	4D	4f#	4ddd
4DD#	4D#	4dd#	4ddd#
=7	=7	=7	=7
4EE	4E	4ee	4eee
4EE	4E	4ee	4eee
4EE	4E	4b 4e	4b 4gg#
=8	=8	=8	=8
4AA	4A	4cc# 4e	4aa 4a
2r	2r	4r	2r
.	.	4a	.
=9	=9	=9	=9
[2.AA	8a	4cc#	4aa
.	8e	.	.
.	8d	4ee	4aa
.	8c#	.	.
.	8B	4a	4r
.	8A	.	.
=10	=10	=10	=10
2.AA_	8dd	4b	4gg#
.	8b	.	.
.	8a	4dd	4gg#
.	8g#	.	.
.	8f#	4e	4r
.	8e	.	.
=11	=11	=11	=11
2AA]	8ee	4cc#	4gg
.	8cc#	.	.
.	8b	4ee	4gg
.	8a	.	.
4AA	8g	4cc#	4r
.	8e	.	.
=12	=12	=12	=12
4BB-	4d	[2.dd	2.ff
4D	2r	.	.
4FF	.	.	.
=13	=13	=13	=13
4GG	2.r	2.dd]	2ee
4BB-	.	.	.
4GG#	.	.	4ff
=14	=14	=14	=14
8AA	2.r	2cc#	2ee
8A	.	.	.
8G#	.	.	.
8A	.	.	.
8F	.	4dd	4ff
8D	.	.	.
=15	=15	=15	=15
4AA	8A	4cc#	4ee
.	8a	.	.
2r	8g#	4cc#	4ee
.	8a	.	.
.	8f	4dd	4ff
.	8d	.	.
=16	=16	=16	=16
2.r	4A	4cc#	4ee
.	2r	2r	4r
.	.	.	4d
=17	=17	=17	=17
4D	4F#	4A	4f#
2r	2r	2r	4a
.	.	.	4B
=18	=18	=18	=18
4D	4G	4B	4e
2r	2r	2r	4g
.	.	.	8c#
.	.	.	8d
=19	=19	=19	=19
4D	4G	8c#	8e
.	.	8d	8f#
4D	4G	8e	8g
.	.	8f#	8a
4D	4G	8g	8b
.	.	8e	8cc#
=20	=20	=20	=20
4D	4F#	4f#	4dd
2r	4r	4r	4dd
.	8A	8c#	4aa
.	8B	8d	.
=21	=21	=21	=21
2.r	8c#	8e	4gg
.	8d	8f#	.
.	8e	8g	4gg
.	8f#	8a	.
.	8g	8b	4gg
.	8a	8cc#	.
=22	=22	=22	=22
2.r	4b	4dd	4ff#
.	4b	4dd	4ff#
.	8ff#	8aa	8ddd
.	8ee	8gg	8ccc#
=23	=23	=23	=23
2r	8dd	8ff#	8bb
.	8cc#	8ee	8aa
.	8b	8dd	8gg
.	8a	8cc#	8ff#
8E	8g	8b	8ee
8F#	8f#	8a	8dd#
=24	=24	=24	=24
8G	4e	8b	8ee
8F#	.	8a	8dd#
8E	4r	8g	8ee
8D	.	8f#	8ff#
8C#	8A	4e	4gg
8AA	8c#	.	.
=25	=25	=25	=25
8D	8d	4f#	4ff#
8E	8e	.	.
8F#	8f#	4f#	4dd
8G	8g	.	.
4A	4a	4e	4cc#
=26	=26	=26	=26
4D	4d	4d	4dd
2r	2r	2r	4r
.	.	.	4dd
=27	=27	=27	=27
2.r	2.r	4r	4ff#
.	.	4f#	4aa
.	.	4g	4b
=28	=28	=28	=28
2.r	2.r	4e	4gg
.	.	4f#	4a
.	.	4d#	4ff#
=29	=29	=29	=29
2.r	2.r	4e	4g
.	.	4c#	4ee
.	.	4d	4f#
=30	=30	=30	=30
2.G	2.B	2d	8e
.	.	.	8f#
.	.	.	8g
.	.	.	8a
.	.	8d	8b
.	.	8e	8cc#
=31	=31	=31	=31
4G#	4r	4f	4dd
4r	4d	4r	4r
4G#	4r	4d	4ee
=32	=32	=32	=32
4A	4r	4d	4ff
4r	4d	4r	4r
4A	4r	4dd	4ff
=33	=33	=33	=33
4A#	4r	4dd	4ff#
4r	4d	4r	4r
4A#	4r	4dd	4ff#
=34	=34	=34	=34
4B	4r	4dd	4gg
4r	4d	4r	4r
4A	4r	4dd	4ff#
=35	=35	=35	=35
4G	4r	4dd	4ee
4r	4d	4r	4r
4A	4r	4dd	4ff#
=36	=36	=36	=36
4B	4r	4dd	4gg
4r	4d	4r	4r
4A	4r	8dd	4ff#
.	.	8cc#	.
=37	=37	=37	=37
2.G	4r	4b	4ee
.	4B	4g	4gg
.	4G	4e	4bb
=38	=38	=38	=38
2.A	2A	2f#	2dd
.	8e	8g	8cc#
.	8d	8f#	8dd
=39	=39	=39	=39
2.AA	8c#	8e	8ee
.	8B	8d	8ff#
.	8A	8c#	8gg
.	8G	8B	8aa
.	8F#	8A	8bb
.	8E	8g	8ccc#
=40	=40	=40	=40
4DD	4D	4f#	4ddd
4r	4r	2r	2r
8CC#	8E	.	.
8DD	8F#	.	.
=41	=41	=41	=41
8EE	8G	2r	2r
8FF#	8A	.	.
8GG	8B	.	.
8AA	8c#	.	.
8BB	8d	4a	4aa
8C#	8e	.	.
=42	=42	=42	=42
4D	4f#	4f#	4ff#
2r	2r	4r	2r
*d:	*d:	*d:	*d:
.	.	8c#	.
.	.	8d	.
=43	=43	=43	=43
2.r	2r	8e	2.r
.	.	8f	.
.	.	8g	.
.	.	8a	.
.	4d	8b-	.
.	.	8g#	.
=44	=44	=44	=44
2.r	2c#	8a	2.r
.	.	8g#	.
.	.	8a	.
.	.	8e	.
.	4c	8a	.
.	.	8f#	.
=45	=45	=45	=45
2.r	2B	8g	2.r
.	.	8f#	.
.	.	8g	.
.	.	8d	.
.	4B-	8g	.
.	.	8e	.
=46	=46	=46	=46
2.r	2A	8f	2r
.	.	8e	.
.	.	8f	.
.	.	8c	.
.	4G	8B-	8d
.	.	8c	8e
=47	=47	=47	=47
2.r	4F	4A	8f
.	.	.	8a
.	2r	4r	8b-
.	.	.	8cc
.	.	4f	8dd
.	.	.	8b
=48	=48	=48	=48
2.r	2.r	2e	8cc
.	.	.	8b
.	.	.	8cc
.	.	.	8g
.	.	4b-	8ee
.	.	.	8cc
=49	=49	=49	=49
2r	2.r	2a	8ff
.	.	.	8ee
.	.	.	8ff
.	.	.	8cc
8E	.	[4cc	8bb-
8c	.	.	8gg
=50	=50	=50	=50
8F	2r	4cc]	8aa
8E	.	.	8gg#
8F	.	4cc	8aa
8c	.	.	8ff
8E	8b-	[4cc	8bb-
8c	8g	.	8gg
=51	=51	=51	=51
8F	8a	4cc]	8aa
8E	8g#	.	8gg#
8F	8a	4cc	8aa
8c	8f	.	8ff
8E	8b-	[4cc	8bb-
8c	8g	.	8gg
=52	=52	=52	=52
8F	8a	4cc]	8aa
8A	8f	.	8ff
8C#	8g	2a	8gg
8A	8e	.	8ee
8D	8f	.	8ff
8F	8d	.	8dd
=53	=53	=53	=53
8AA	8e-	2.f	8ee-
8F	8c	.	8cc
8BB-	8d	.	8dd
8F	8B-	.	8b-
8C	8c	.	8cc
8E-	8A	.	8a
=54	=54	=54	=54
4D	4B-	4.f	8b-
.	.	.	8a
4r	2r	.	8b-
.	.	8b-	8dd
4BB-	.	8a	8cc
.	.	8g	8b-
=55	=55	=55	=55
2C	4c	8f	8a
.	.	8g	8b-
.	4c	8a	8cc
.	.	8f	8a
4C	4c	8g	8b-
.	.	8e	8g
=56	=56	=56	=56
4FF	4A	4f	4f
4F	4r	4r	4r
4r	8c#	8gg	8bb-
.	8d	8ff	8aa
=57	=57	=57	=57
2.r	8e	8ee	8gg
.	8f	8dd	8ff
.	8g	8cc#	8ee
.	8a	8dd	8ff
.	8b-	8ee	8gg
.	8g#	8dd	8ff
=58	=58	=58	=58
2.r	8a	4cc#	4ee
.	8g#	.	.
.	8a	4r	4r
.	8A	.	.
.	8c#	8gg	8bb-
.	8d	8ff	8aa
=59	=59	=59	=59
2.r	8e	8ee	8gg
.	8f	8dd	8ff
.	8g	8cc#	8ee
.	8a	8dd	8ff
.	8b-	8ee	8gg
.	8g#	8dd	8ff
=60	=60	=60	=60
2r	8a	4cc#	4ee
.	8g#	.	.
.	8a	8c#	2aa
.	8A	8d	.
8C#	4r	8e	.
8D	.	8f	.
=61	=61	=61	=61
8E	2.r	4g	8gg
8F	.	.	8ff
8G	.	4r	8ee
8A	.	.	8dd
8B-	.	4f	[4dd
8G#	.	.	.
=62	=62	=62	=62
8A	2r	2e	4dd]
8G#	.	.	.
8A	.	.	4cc#
8E	.	.	.
8A	[4a	4e-	[4cc
8F#	.	.	.
=63	=63	=63	=63
8G	4a]	2d	4cc]
8F#	.	.	.
8G	4g	.	4b
8D	.	.	.
8G	4g	4c#	4b-
8E	.	.	.
=64	=64	=64	=64
8F	4f	4d	4a
8AA	.	.	.
8E	4A	4c#	4g
8AA	.	.	.
8BB-	4B-	4d	4f
8FF	.	.	.
=65	=65	=65	=65
8GG	2B-	2d	8e
8FF	.	.	8d
8GG	.	.	8e
8EE	.	.	8g
8AA	4A	4c#	8f
8AA	.	.	8e
=66	=66	=66	=66
4DD	4A	4d	4d
2r	2r	2r	2r
==	==	==	==
*-	*-	*-	*-
!!!RWG1: This file contains only pitch and duration data.
!!!RWG2: Transposing instruments are not transposed.
!!!RWG3: Spines may have incompatible meters.
!!!RWG4: Durations of rests and tied notes may be interpreted.
!!!RWG: Key is interpreted using the Humdrum key tool.
!!!GTL: 6 Quartetti ("Tost III")
!!!OPT: The Lark
!!!AFT: stage1
!!!END: 1997/04/15
!!!KEY: 3522437209
!!!EMD: Converted from MuseData to Humdrum Dec 16, 2000, by Andreas Kornstaedt using muse2kern.
!!!EMD: Manual editing by Craig Sapp, Nov 2001
